blockchains/groestlcoin/logo.svg

<svg fill="none" height="250" viewBox="0 0 250 250" width="250" xmlns="http://www.w3.org/2000/svg" xmlns:xlink="http://www.w3.org/1999/xlink"><clipPath id="a"><path d="m0 0h250v250h-250z"/></clipPath><g clip-path="url(#a)"><path d="m125 250c69.036 0 125-55.964 125-125 0-69.0356-55.964-125-125-125-69.0356 0-125 55.9644-125 125 0 69.036 55.9644 125 125 125z" fill="#377e96"/><path clip-rule="evenodd" d="m184.57 234.922.657-.484c-1.813-3.321-4.75-5.063-8.055-5.852-4.719-1.125-9.516-2.164-14.328-2.5-10.696-.773-21.422-.953-32.125-1.602-11.922-.726-23.828-1.734-35.7581-2.515-1.039-.078-2.5312.312-3.125 1.055-3.125 3.828-6.1484 7.765-8.9609 11.828-1.375 1.992-2.2266 4.336-3.2969 6.484l.8203.469c-4.7025-1.796-9.2917-3.875-13.7421-6.227.8125.156 1.875.031 2.2734-.367 4.8906-4.898 9.625-9.953 14.3828-14.953-3.5547-2.844-7.0312-5.367-10.1953-8.227-2.9531-2.672-4.1875-6.211-3.9297-10.265.3906-6.227 3.1172-11.532 7.125-15.985 4.7422-5.257 10.0625-10 15.1406-14.953.625-.601 1.2735-1.156 1.8516-1.687-.1953-.344-.2188-.446-.2734-.485l-1.4844-.859c-16.3125-9.406-24.4453-23.695-24.6563-42.344-.1875-15.969 6.6094-28.8983 18.6328-39.1092 11.7188-9.9453 25.5236-13.4375 40.6716-13.0937 11.211.2578 21.688 2.7343 31.446 8.3046.547.3125 1.922-.0546 2.422-.5781 4.617-4.8359 9.296-9.625 13.625-14.7265 5.375-6.3282 9.921-13.2032 11.804-21.5 1.469-6.4688.844-12.5469-3.844-17.5938-6.882-7.4141-18.726-6.4141-24.765 2.0313-1.188 1.6562-1.875 3.6718-3.039 5.3671-.43.625-1.524.8047-2.321 1.1954-.187-.7032-.625-1.4297-.523-2.0782.266-1.7812.609-3.5937 1.195-5.2812 2.969-8.5156 8.485-14.3281 17.735-15.625 3.008-.4219 6.133-.0703 9.273-.0703-.156-.211-.219-.3907-.344-.4453-.581-.3133-1.173-.6077-1.773-.8829-5.896-2.69351-11.986-4.93944-18.219-6.71871 11.706 3.28651 22.866 8.27181 33.125 14.79691.063.6797.024.8593.102.9531 6.898 8.5078 6.015 17.5312 1.672 26.7187-3.688 7.7735-9.063 14.3516-14.868 20.6172-5.312 5.7344-10.656 11.4453-16.007 17.1875.218.1407.343.2969.468.2969 8.18.0078 16.36.125 24.532-.0469 4.265-.0781 8.054-1.4922 10.687-5.2656.5-.7266 1.86-.8594 2.828-1.2656l.547.7578c-2.265 6.5312-4.5 13.0703-6.89 19.5469-.204.5468-1.407.9922-2.172 1.0234-2.891.1252-5.782.0542-8.672.0542h-10.391l1.18 2.344c5.625 11.016 7.117 22.696 4.273 34.61-4.195 17.578-15.695 28.937-32.422 34.843-13.656 4.829-27.671 4.657-41.695 1.305-1.242-.297-3.164-.547-3.828.117-3.0157 3.016-6.2032 6.055-8.3751 9.664-4.4765 7.438-1.875 12.61 6.6563 14.407l.2422.031c8.3746.648 16.7426 1.445 25.1246 1.906 11.86.649 23.735.906 35.586 1.617 7.18.43 14.266 1.696 20.735 5.125 8.328 4.399 14.226 10.883 16.812 20.36.61-.43 1.219-.86 1.828-1.305-4.867 3.648-10 6.953-15.39 9.875zm-37.89 13.203c-7.583 1.327-15.272 1.954-22.969 1.875 7.691-.076 15.367-.702 22.969-1.875zm103.32-122.734v-.391c0-10.781-1.367-21.242-3.93-31.2187 2.553 10.3467 3.872 20.9597 3.93 31.6177zm-29.062-80.5081c-7.245-8.6685-15.625-16.3207-24.915-22.75 9.508 6.875 17.836 14.4531 24.922 22.75zm-156.0474 189.7261c-6.1663-3.388-12.036-7.289-17.5468-11.664 5.5703 4.227 11.6484 7.852 17.5468 11.664zm-64.8905896-109.367c.0153267-6.659.5297886-13.308 1.5390596-19.89-1.037812 6.576-1.5524459 13.225-1.5390596 19.882zm22.7812896-72.2107c4.9032-6.8209 10.4211-13.1782 16.4843-18.9922-6.1155 5.7612-11.6379 12.1212-16.4843 18.9844zm64.1953-47.14062c12.3212-3.79948 25.1304-5.783852 38.0234-5.89062706-12.903-.01187874-25.7292 1.97522706-38.0234 5.89062706zm65.8824 124.23432-.468-.117c-.274-3.781-.422-7.578-.828-11.344-.922-8.719-3.399-16.953-8.204-24.3749-7.109-11-18.984-15.4375-30.375-11.0312-9.351 3.6093-14.3121 11.0312-16.5465 20.4921-2.125 8.953-1.9531 18.024-.875 27.055 1.0391 8.594 3.4922 16.773 8.4375 24.047 6.359 9.336 15.227 13.414 26.25 11.57 10.469-1.734 17.047-8.508 19.727-18.578 1.539-5.75 1.961-11.797 2.89-17.719z" fill="#fff" fill-rule="evenodd"/></g></svg>

<svg width="250" height="250" viewBox="0 0 250 250" fill="none" xmlns="http://www.w3.org/2000/svg">
<g clip-path="url(#clip0_9_746)">
<path d="M125 250C194.036 250 250 194.036 250 125C250 55.9644 194.036 0 125 0C55.9644 0 0 55.9644 0 125C0 194.036 55.9644 250 125 250Z" fill="#377E96"/>
<path fill-rule="evenodd" clip-rule="evenodd" d="M184.57 234.922L185.227 234.438C183.414 231.117 180.477 229.375 177.172 228.586C172.453 227.461 167.656 226.422 162.844 226.086C152.148 225.313 141.422 225.133 130.719 224.484C118.797 223.758 106.891 222.75 94.9609 221.969C93.9219 221.891 92.4297 222.281 91.8359 223.024C88.7109 226.852 85.6875 230.789 82.875 234.852C81.5 236.844 80.6484 239.188 79.5781 241.336L80.3984 241.805C75.6959 240.009 71.1067 237.93 66.6563 235.578C67.4688 235.734 68.5313 235.609 68.9297 235.211C73.8203 230.313 78.5547 225.258 83.3125 220.258C79.7578 217.414 76.2813 214.891 73.1172 212.031C70.1641 209.359 68.9297 205.82 69.1875 201.766C69.5781 195.539 72.3047 190.234 76.3125 185.781C81.0547 180.524 86.375 175.781 91.4531 170.828C92.0781 170.227 92.7266 169.672 93.3047 169.141C93.1094 168.797 93.0859 168.695 93.0313 168.656L91.5469 167.797C75.2344 158.391 67.1016 144.102 66.8906 125.453C66.7031 109.484 73.5 96.5547 85.5234 86.3438C97.2422 76.3985 111.047 72.9063 126.195 73.2501C137.406 73.5079 147.883 75.9844 157.641 81.5547C158.188 81.8672 159.563 81.5001 160.063 80.9766C164.68 76.1407 169.359 71.3516 173.688 66.2501C179.063 59.9219 183.609 53.0469 185.492 44.7501C186.961 38.2813 186.336 32.2032 181.648 27.1563C174.766 19.7422 162.922 20.7422 156.883 29.1876C155.695 30.8438 155.008 32.8594 153.844 34.5547C153.414 35.1797 152.32 35.3594 151.523 35.7501C151.336 35.0469 150.898 34.3204 151 33.6719C151.266 31.8907 151.609 30.0782 152.195 28.3907C155.164 19.8751 160.68 14.0626 169.93 12.7657C172.938 12.3438 176.063 12.6954 179.203 12.6954C179.047 12.4844 178.984 12.3047 178.859 12.2501C178.278 11.9368 177.686 11.6424 177.086 11.3672C171.19 8.67369 165.1 6.42776 158.867 4.64849C170.573 7.935 181.733 12.9203 191.992 19.4454C192.055 20.1251 192.016 20.3047 192.094 20.3985C198.992 28.9063 198.109 37.9297 193.766 47.1172C190.078 54.8907 184.703 61.4688 178.898 67.7344C173.586 73.4688 168.242 79.1797 162.891 84.9219C163.109 85.0626 163.234 85.2188 163.359 85.2188C171.539 85.2266 179.719 85.3438 187.891 85.1719C192.156 85.0938 195.945 83.6797 198.578 79.9063C199.078 79.1797 200.438 79.0469 201.406 78.6407L201.953 79.3985C199.688 85.9297 197.453 92.4688 195.063 98.9454C194.859 99.4922 193.656 99.9376 192.891 99.9688C190 100.094 187.109 100.023 184.219 100.023H173.828L175.008 102.367C180.633 113.383 182.125 125.063 179.281 136.977C175.086 154.555 163.586 165.914 146.859 171.82C133.203 176.649 119.188 176.477 105.164 173.125C103.922 172.828 102 172.578 101.336 173.242C98.3203 176.258 95.1328 179.297 92.9609 182.906C88.4844 190.344 91.0859 195.516 99.6172 197.313L99.8594 197.344C108.234 197.992 116.602 198.789 124.984 199.25C136.844 199.899 148.719 200.156 160.57 200.867C167.75 201.297 174.836 202.563 181.305 205.992C189.633 210.391 195.531 216.875 198.117 226.352C198.727 225.922 199.336 225.492 199.945 225.047C195.078 228.695 189.945 232 184.555 234.922H184.57ZM146.68 248.125C139.097 249.452 131.408 250.079 123.711 250C131.402 249.924 139.078 249.298 146.68 248.125V248.125ZM250 125.391V125C250 114.219 248.633 103.758 246.07 93.7813C248.623 104.128 249.942 114.741 250 125.399V125.391ZM220.938 44.8829C213.693 36.2144 205.313 28.5622 196.023 22.1329C205.531 29.0079 213.859 36.586 220.945 44.8829H220.938ZM64.8906 234.609C58.7243 231.221 52.8546 227.32 47.3438 222.945C52.9141 227.172 58.9922 230.797 64.8906 234.609ZM1.03956e-05 125.242C0.0153371 118.583 0.529799 111.934 1.53907 105.352C0.501258 111.928 -0.0133759 118.577 1.03956e-05 125.234V125.242ZM22.7813 53.0313C27.6845 46.2104 33.2024 39.8531 39.2656 34.0391C33.1501 39.8003 27.6277 46.1603 22.7813 53.0235V53.0313ZM86.9766 5.89068C99.2978 2.0912 112.107 0.106828 125 5.29429e-05C112.097 -0.0118258 99.2708 1.97528 86.9766 5.89068V5.89068ZM152.859 130.125L152.391 130.008C152.117 126.227 151.969 122.43 151.563 118.664C150.641 109.945 148.164 101.711 143.359 94.2891C136.25 83.2891 124.375 78.8516 112.984 83.2579C103.633 86.8672 98.6719 94.2891 96.4375 103.75C94.3125 112.703 94.4844 121.774 95.5625 130.805C96.6016 139.399 99.0547 147.578 104 154.852C110.359 164.188 119.227 168.266 130.25 166.422C140.719 164.688 147.297 157.914 149.977 147.844C151.516 142.094 151.938 136.047 152.867 130.125H152.859Z" fill="white"/>
</g>
<defs>
<clipPath id="clip0_9_746">
<rect width="250" height="250" fill="white"/>
</clipPath>
</defs>
</svg>
